Papirus/24x24/mimetypes/application-x.allegorithmic.substance.svg

<svg width="24" height="24" version="1.1" xmlns="http://www.w3.org/2000/svg">
 <path d="m5 2.5c-0.554 0-1 0.446-1 1v18c0 0.554 0.446 1 1 1h14c0.554 0 1-0.446 1-1v-13l-6-6z" style="opacity:.2"/>
 <path d="m5 2c-0.554 0-1 0.446-1 1v18c0 0.554 0.446 1 1 1h14c0.554 0 1-0.446 1-1v-13l-5-1-1-5z" style="fill:#53b848"/>
 <path d="m20 8.5-6-6v5c0 0.554 0.446 1 1 1z" style="opacity:.2"/>
 <path d="m20 8-6-6v5c0 0.554 0.446 1 1 1z" style="fill:#69d65d"/>
 <path d="m5 2c-0.554 0-1 0.446-1 1v0.5c0-0.554 0.446-1 1-1h9v-0.5z" style="fill:#ffffff;opacity:.2"/>
 <path d="m 13.841797,9.921875 c -0.06523,0.201985 -0.149652,0.393724 -0.253906,0.574219 C 13.84673,10.937136 14,11.448287 14,12 v 0.5 l 0.5,0.25 v 0.666016 L 17,14.25 V 11.5 Z M 8.2148438,10.892578 7,11.5 v 2.666016 L 8,14.5 V 12 C 8,11.607533 8.078975,11.235559 8.2148438,10.892578 Z M 14,13.833984 V 16 c 0,0.166213 -0.02308,0.325657 -0.04883,0.484375 L 14,16.5 13.94727,16.52539 C 13.699118,17.933809 12.48172,19 11,19 9.338,19 8,17.662 8,16 V 15.083984 L 7,14.75 v 2.75 l 5,2.5 5,-2.5 v -2.666016 z" style="fill:#ffffff"/>
 <path d="m14 12.5v0.5l0.5 0.25v-0.5zm0.5 0.916016v0.5l2.5 0.833984v-0.5zm-7.5 0.75v0.5l1 0.333984v-0.5zm6.951172 2.318359c-0.0023 0.01407-0.0014 0.02897-0.0039 0.04297l0.052728-0.027345zm-6.951172 1.015625v0.5l5 2.5 5-2.5v-0.5l-5 2.5z" style="opacity:.2"/>
 <path d="m9 2v7c0 1.1 0.895 2 2 2s2-0.9 2-2v-7z" style="opacity:.1"/>
 <path d="m10 2v1h1v-1zm1 1v1h1v-1zm0 1h-1v1h1zm0 1 0.0078 1.0019531 0.9922-0.0019531v-1zm-1 1v1h1v-1zm1 1v1h1v-1zm0 1h-1v1h1zm0 1v1c0.552 0 1-0.5 1-1z" style="opacity:.2"/>
 <path d="m10 5v1h1v-1zm0 2v1h1v-1zm0 2c0 0.5 0.448 1 1 1v-1z" style="fill:#dddddd"/>
 <path d="m11 10.5c-1.105 0-2 0.9-2 2v4c0 1.1 0.895 2 2 2s2-0.9 2-2v-4c0-1.1-0.895-2-2-2zm0 1c0.552 0 1 0.4 1 1 0 0.5-0.448 1-1 1s-1-0.5-1-1c0-0.6 0.448-1 1-1zm0 3c0.552 0 1 0.4 1 1v1c0 0.5-0.448 1-1 1s-1-0.5-1-1v-1c0-0.6 0.448-1 1-1z" style="opacity:.2"/>
 <path d="m11 6h1v1h-1zm0 2h1v1h-1z" style="fill:#b3b3b3"/>
 <path d="m11 10c-1.105 0-2 0.9-2 2v4c0 1.1 0.895 2 2 2s2-0.9 2-2v-4c0-1.1-0.895-2-2-2zm0 1c0.552 0 1 0.4 1 1 0 0.5-0.448 1-1 1s-1-0.5-1-1c0-0.6 0.448-1 1-1zm0 3c0.552 0 1 0.4 1 1v1c0 0.5-0.448 1-1 1s-1-0.5-1-1v-1c0-0.6 0.448-1 1-1z" style="fill:#dddddd"/>
 <path d="m10 3v1h1v-1z" style="fill:#dddddd"/>
 <path d="m11 2h1v1h-1zm0 2h1v1h-1z" style="fill:#b3b3b3"/>
</svg>

<svg xmlns="http://www.w3.org/2000/svg" width="24" height="24" version="1">
 <path style="opacity:0.2" d="m 5,2.5 c -0.554,0 -1,0.446 -1,1 v 18 c 0,0.554 0.446,1 1,1 h 14 c 0.554,0 1,-0.446 1,-1 V 8.5 L 14.5,8 14,2.5 Z"/>
 <path style="fill:#53b848" d="M 5,2 C 4.446,2 4,2.446 4,3 V 21 C 4,21.554 4.446,22 5,22 H 19 C 19.554,22 20,21.554 20,21 V 8 L 14.5,7.5 14,2 Z"/>
 <path style="opacity:0.1" d="m 9,2 v 7 c 0,1.1 0.895,2 2,2 1.105,0 2,-0.9 2,-2 V 2 Z"/>
 <path style="opacity:0.2" d="M 10 2 L 10 3 L 11 3 L 11 2 L 10 2 z M 11 3 L 11 4 L 12 4 L 12 3 L 11 3 z M 11 4 L 10 4 L 10 5 L 11 5 L 11 4 z M 11 5 L 11.007812 6.0019531 L 12 6 L 12 5 L 11 5 z M 10 6 L 10 7 L 11 7 L 11 6 L 10 6 z M 11 7 L 11 8 L 12 8 L 12 7 L 11 7 z M 11 8 L 10 8 L 10 9 L 11 9 L 11 8 z M 11 9 L 11 10 C 11.552 10 12 9.5 12 9 L 11 9 z"/>
 <path style="fill:#dddddd" d="m 10,5 v 1 h 1 V 5 Z m 0,2 v 1 h 1 V 7 Z m 0,2 c 0,0.5 0.448,1 1,1 V 9 Z"/>
 <path style="opacity:0.2" d="m 11,10.5 c -1.105,0 -2,0.9 -2,2 v 4 c 0,1.1 0.895,2 2,2 1.105,0 2,-0.9 2,-2 v -4 c 0,-1.1 -0.895,-2 -2,-2 z m 0,1 c 0.552,0 1,0.4 1,1 0,0.5 -0.448,1 -1,1 -0.552,0 -1,-0.5 -1,-1 0,-0.6 0.448,-1 1,-1 z m 0,3 c 0.552,0 1,0.4 1,1 v 1 c 0,0.5 -0.448,1 -1,1 -0.552,0 -1,-0.5 -1,-1 v -1 c 0,-0.6 0.448,-1 1,-1 z"/>
 <path style="fill:#b3b3b3" d="m 11,6 h 1 v 1 h -1 z m 0,2 h 1 v 1 h -1 z"/>
 <path style="fill:#dddddd" d="M 11,10 C 9.895,10 9,10.9 9,12 V 16 C 9,17.1 9.895,18 11,18 12.105,18 13,17.1 13,16 V 12 C 13,10.9 12.105,10 11,10 Z M 11,11 C 11.552,11 12,11.4 12,12 12,12.5 11.552,13 11,13 10.448,13 10,12.5 10,12 10,11.4 10.448,11 11,11 Z M 11,14 C 11.552,14 12,14.4 12,15 V 16 C 12,16.5 11.552,17 11,17 10.448,17 10,16.5 10,16 V 15 C 10,14.4 10.448,14 11,14 Z"/>
 <path fill="#fff" opacity=".2" d="m5 2c-0.554 0-1 0.446-1 1v0.5c0-0.554 0.446-1 1-1h9l5.5 5.5h0.5l-6-6z"/>
 <path style="opacity:0.2" d="m 14,2.5 v 5 c 0,0.5523 0.44772,1 1,1 h 5 z"/>
 <path style="fill:#69d65d" d="M 14,2 V 7 C 14,7.5523 14.448,8 15,8 H 20 Z"/>
 <path style="fill:#dddddd" d="m 10,3 v 1 h 1 V 3 Z"/>
 <path style="fill:#b3b3b3" d="m 11,2 h 1 v 1 h -1 z m 0,2 h 1 v 1 h -1 z"/>
 <path style="opacity:0.2" d="M 13.842,10.422 C 13.777,10.624 13.692,10.816 13.588,10.996 13.847,11.437 14,11.948 14,12.5 V 13 L 14.5,13.25 V 13.916 L 17,14.75 V 12 Z M 8.2148,11.393 7,12 V 14.666 L 8,15 V 12.5 C 8,12.108 8.079,11.736 8.2148,11.393 Z M 14,14.334 V 16.5 C 14,16.666 13.977,16.826 13.951,16.984 L 14,17 13.947,17.025 C 13.699,18.434 12.482,19.5 11,19.5 9.338,19.5 8,18.162 8,16.5 V 15.584 L 7,15.25 V 18 L 12,20.5 17,18 V 15.334 Z"/>
 <path style="fill:#ffffff" d="M 13.842,9.922 C 13.777,10.124 13.692,10.316 13.588,10.496 13.847,10.937 14,11.448 14,12 V 12.5 L 14.5,12.75 V 13.416 L 17,14.25 V 11.5 Z M 8.2148,10.893 7,11.5 V 14.166 L 8,14.5 V 12 C 8,11.608 8.079,11.236 8.2148,10.893 Z M 14,13.834 V 16 C 14,16.166 13.977,16.326 13.951,16.484 L 14,16.5 13.947,16.525 C 13.699,17.934 12.482,19 11,19 9.338,19 8,17.662 8,16 V 15.084 L 7,14.75 V 17.5 L 12,20 17,17.5 V 14.834 Z"/>
</svg>
